X:1
T:Title
%%score 1 { ( 2 3 4 ) | ( 5 6 ) }
L:1/8
Q:1/4=88
M:3/4
K:Bb
V:1 treble nm="Akkordion"
V:2 treble nm="Grand Piano"
V:3 treble 
V:4 treble 
V:5 bass 
V:6 bass 
V:1
 F3 B cd | B3 D FB | A3 c GA | G2 F4 | B3 d BG | F3 D FB | A3 B Gc | c2 F4 | F3 B cd | B3 D FB | %10
 A3 e GA | G2 F4 | d3 f ed | c3 G AB | F3 d cF | B6 | B3 c Bc | B2 e2 d2 | c3 G cd | c2 f4 | %20
 f3 d cB | G3 A Bc | F3 d cF | B6 |] %24
V:2
 DD z B cd | B4 .[B,F]2 | A-[EA-] Ac GA | G-[DG] F2- [DF]2 | B-[DB-] [DB]d [DB][EG] | %5
w: Geo.~C.~Stebbins * * * *|||||
 F-[DF-] [DF-][DF-] [DF]B | A-[FA-] AB Gc | c2 F4 | DD z B cd | B4 .[B,F]2 | A-[EA-] Ae GA | %11
w: ||||||
 G-[DG] F2- [DF]2 | d4 z2 | c4 z2 | z D Dd cF | B6[K:bass] | B4 z2 | B2 z2 z2 | c4 z2 | %19
w: ||||||||
 z F f2- [cf]2 | f4 .[Ec]2 | z E EA Bc | z D Dd cF | B6 |] %24
w: |||||
V:3
 F4 z2 | [B,D]D DD D-[DB] | .E2 E2 z2 | .D2 D2 z2 | .D2 z2 z2 | .D2 z2 z2 | .F2 F2 [B,=E]2 | %7
 z F z2 E2 | F4 z2 | [B,D]D DD D-[DB] | .E2 E2 z2 | .D2 D2 z2 | z F F[_Af] [Ge]d | %13
 [EG][EG] [EG]G [FA]B | F4 z2 | [B,D][K:bass][G,E] [F,D]4 | [D_A][DA] [DA]2 .[DAB]2 | %17
 [EG][EG] [Ge]2 d2 | z =E z G cd | c2 A2 z2 | z B [DB][Ad] A-[AB] | G6 | F4 z2 | DE D4 |] %24
V:4
 z2 D2 z2 | x6 | x6 | x6 | x6 | x6 | x6 | x6 | z2 D2 z2 | x6 | x6 | x6 | x6 | x6 | x6 | %15
 x[K:bass] x5 | x6 | x6 | z2 =E2 E2 | x6 | x6 | x6 | x6 | x6 |] %24
V:5
 [B,,B,][B,,B,] [B,,B,]2 EF | B,,[B,,F,] z B, z F, | [C,F,][C,F,] [C,F,]2 [F,A,E]2 | %3
 [B,,B,][B,,B,] [B,,B,]2 [B,,B,]2 | [B,,F,][B,,F,] F,[B,F] [B,,B,]2 | %5
 [B,,B,][B,,B,] B,[F,B,] B,[DF] | [C,C][C,C] CG, B,,2 | [F,A,F][F,A,] [F,A,]4 | %8
 [B,,B,][B,,B,] [B,,B,]2 EF | B,,[B,,F,] z B, z F, | [C,F,][C,F,] [C,F,]2 [F,A,E]2 | %11
 [B,,B,][B,,B,] [B,,B,]2 [B,,B,]2 | [B,F]B, z D z F | E,E, z E z G | [F,B,D][F,B,] z F [F,A,E]2 | %15
 B,,B,, B,,4 | B,,B,, z[K:treble] c z c | E,E, [E,B,]2 [F,B,F]2 | [G,B,=E][G,B,] [G,B,]2 [C,A,]2 | %19
 [F,A,F][F,A,] [F,C]2[K:treble] [A,E]2 | [B,DB][B,D] z F[K:bass] z D | [E,E][E,B,] z F [E,E]2 | %22
 [F,B,D][F,B,] z F [F,A,E]2 | [B,,B,][B,,G,] [B,,F,]4 |] %24
V:6
 z2 z2 [F,A,]2 | z2 [B,,F,]2 B,,2 | x6 | x6 | z2 B,,2 z2 | z2 B,,2 B,,2 | z2 C,2 z2 | x6 | %8
 z2 z2 [F,A,]2 | z2 [B,,F,]2 B,,2 | x6 | x6 | z2 B,2 B,2 | z2 E,2 [E,B,]2 | z2 [F,B,]2 z2 | x6 | %16
 z2 B,,2[K:treble] B,,2 | x6 | x6 | x4[K:treble] x2 | z2 B,2[K:bass] B,,2 | z2 [E,B,]2 z2 | %22
 z2 [F,B,]2 z2 | x6 |] %24

